!!!COM: Palestrina, Giovanni Perluigi da
!!!OPR: Missa Sanctorum meritis
!!!OMD: Sanctus
!!!OTL: Hosanna
**kern	**kern	**kern	**kern
*Ibass	*Itenor	*Icalto	*Icant
!Bassus	!Tenor	!Altus	!Cantus
*clefF4	*clefGv2	*clefG2	*clefG2
*k[]	*k[]	*k[]	*k[]
*E:phr	*E:phr	*E:phr	*E:phr
*M4/2	*M4/2	*M4/2	*M4/2
=70	=70	=70	=70
0r	0r	1A	0a
.	.	2c	.
.	.	2d	.
=71	=71	=71	=71
0r	1r	4A	1cc
.	.	4B	.
.	.	4c	.
.	.	4d	.
.	1E	4e	1g
.	.	4f	.
.	.	[2g	.
=72	=72	=72	=72
0r	2G	2g]	1e
.	2A	2c	.
.	4D	2.f	[1a
.	4E	.	.
.	4F	.	.
.	4G	4e	.
=73	=73	=73	=73
0r	4A	2f	2a]
.	4B	.	.
.	2c	2.e	2g
.	2d	.	1f
.	.	4d	.
.	2D	[2d	.
=74	=74	=74	=74
1AA	1A	2d]	1e
.	.	2c	.
2C	1A	2e	1r
2D	.	2f	.
=75	=75	=75	=75
4AA	1c	1e	2r
4BB	.	.	.
4C	.	.	2e
4D	.	.	.
4E	1G	1B	2.g
4F	.	.	.
[2G	.	.	.
.	.	.	4a
=76	=76	=76	=76
2G]	1E	1r	2b
2C	.	.	1cc
2.F	[1A	2r	.
.	.	2A	[2a
4G	.	.	.
=77	=77	=77	=77
2A	2A]	2c	2a]
2B	2G	2d	2d
2c	1F	4A	4f
.	.	4B	4g
[2A	.	4c	4a
.	.	4d	4b
=78	=78	=78	=78
2A]	1E	1e	2cc
2G#	.	.	2b
1A	1c	[1e	2r
.	.	.	2e
=79	=79	=79	=79
2E	2B	2e]	2g
2F	4A	2c	2a
.	4B	.	.
2C	4c	[1g	4e
.	4d	.	4f
2C	2e	.	4g
.	.	.	4a
=80	=80	=80	=80
2G	2d	2g]	4b
.	.	.	4g
2A	2c	2f#	1cc
1G	1d	2.g	.
.	.	.	4b
.	.	8f	4a
.	.	8e	.
=81	=81	=81	=81
2r	1G	2d	2b
2E	.	2.e	2cc
2G	1r	.	2b
.	.	4d	.
2A	.	2c	[2a
=82	=82	=82	=82
0E	1r	1B	2a]
.	.	.	4g
.	.	.	4f#
.	2r	[1e	2g
.	2E	.	2g
=83	=83	=83	=83
1r	2G	1e]	2b
.	2A	.	2cc
2r	4E	1g	[1b
.	4F	.	.
2E	4G	.	.
.	4A	.	.
=84	=84	=84	=84
2G	4B	1d	2b]
.	4c	.	.
2F#	1d	.	2a
1G	.	1B	1g
.	[2G	.	.
=85	=85	=85	=85
2C	2G]	1.e	2g
2AA	1c	.	2a
2C	.	.	2g
2D	2A	2d	2f
=86	=86	=86	=86
4AA	1A	1c	2e
4BB	.	.	.
4C	.	.	2e
4D	.	.	.
4E	2r	1B	2.g
4F	.	.	.
[2G	2G	.	.
.	.	.	4f
=87	=87	=87	=87
2G]	2B	1G	4e
.	.	.	4d
2C	1c	.	1e
1F	.	1A	.
.	4B	.	2d
.	4A	.	.
=88	=88	=88	=88
1E	2.G	1B	2e
.	.	.	2e
.	4F	.	.
2r	1E	2.e	2g
4AA	.	.	2a
4BB	.	4d	.
=89	=89	=89	=89
4C	2r	2c	4e
4D	.	.	4f
2E	2E	2B	4g
.	.	.	4a
2E	2G	[1e	2b
2AA	2A	.	[2cc
=90	=90	=90	=90
2E	2A	0e]	2cc]
2E	2G	.	2b
1AA	1c	.	1a
=91	=91	=91	=91
0E	0B	0e	0g#
==	==	==	==
*-	*-	*-	*-
!!!CDT: 1525/^1526/-1594/2/2
!!!OCY: Italia
!!!AGN: Mass (Paraphrase)
!!!AST: renaissance, vocal
!!!ASW: Hymn
!!!PWK: Masses, Book 7
!!!RNB: Cadence finals: A,C
!!!YOR: Le Opere Complete, v. 23, p. 30
!!!YOO: Rome, Italy: Fratelli Scalera
!!!END: 1992//
!!!EED: John Miller
!!!YEC: Copyright 2000, John Miller
!!!YEN: United States of America
!!!YEM: Rights to all derivative electronic formats reserved.
!!!YEM: Refer to licensing agreement for further details.
!!!YEM: This file must be accompanied by the licensing agreement.
!!!YEM: A copy of the licensing agreement may be found at http://www.music-cog.ohio-state.edu/HumdrumDatabases/Palestrina/license.txt
!!!EMD: converted to Humdrum by Bret Aarden
